X: 20001
T: Jim McGill's
R: polka
M: 2/4
K: Gmajor
D>E GA|BA/B/ dB|AE ED/E/|GE EG|
D>E GA|BA/B/ dB|AB/A/ GA|1 BG GE:|2 BG G2||
ge ed/e/|gA A2|GE ED/E/|GE E2|
ge ed/e/|gA A2|AE FG|AG G2|
ge ed/e/|gA A2|GE ED/E/|GE EG|
D>E GA|BA/B/ dB|AB/A/ GA|BG G2||

